X:171
T:Shooting Star Breakdo
R:reel
C:Bruce Osborne - Jan. 2003
Z:abc by bosborne@kos.net
M:2/4
L:1/8
K:Bb
F/A/|BB/A/ B/F/D/F/|BB/A/ B/c/d/B/|f/d/B/d/ f/d/B/d/|c/B/A/B/ c/e/d/c/|\
BB/A/ B/F/D/F/|BB/A/ B/c/d/B/|f/d/B/d/ f/d/B/d/|c/e/c/A/ B:|
|:D/E/|F/F/B/F/ F/d/F/F/|B/F/F/B/ d/B/F/D/|E/D/E/F/ G/F/E/D/|C/B,/C/D/ CD/E/|\
F/F/B/F/ F/d/F/F/|B/F/F/B/ d/B/F/D/|E/F/G/A/ B/F/D/F/|B/d/c/A/ B:|
